X:1
T:Orchestral Suite
T:Badinerie
T:Badinerie
T:Orchestral Suite No.2 in B minor, BWV 1067
T:J. S. Bach
T:Public Domain
Z:Public Domain
L:1/8
M:2/4
K:D
V:1 treble nm="Flute"
V:1
 bd'/b/ | fb/f/ df/d/ | B2 F/B/d/B/ | c/B/c/B/ ^A/c/e/c/ | dB bd'/b/ | fb/f/ df/d/ | B2 .d.d | %7
 .d.d bd | Tdc .f.f | ff d'f | Tf^e c/f/a/f/ | ^g/f/g/f/ ^e/g/b/g/ | a/^g/a/g/ f/a/(f/^e/ | %13
 f/)b/(f/^e/ f/)c'/(f/e/ | f/)d'/(f/^e/ f/)d'/c'/b/ | c'/a/^g/f/ aTg | f2 :: fa/f/ | cf/c/ Ac/A/ | %19
 F2 (=cB) | (e^d/)f/ ag/f/ | ge gb/g/ | eg/e/ ce/c/ | A2- A/d/f/d/ | e/d/e/d/ c/e/g/e/ | %25
 f/e/f/e/ d/f/(d/c/ | d/)g/(d/c/ d/)a/(d/c/ | d/)b/(d/c/ d/)b/a/g/ | a/f/e/d/ fTe | d2 .f.f | %30
 .f.f d'f | Tfe .e.e | ee c'e | Ted bd'/b/ |{a} g2- g(b/4a/4g/4f/4) | e2- e(g/4f/4e/4d/4) | %36
 =c/e/g/e/ (=c/B/)(c/B/) | .^A.F (GF) | (B^A/)c/ ed/c/ | d(B/4c/4d/4e/4 f)d/f/ | bf e/d/c/d/ | %41
{c} B2!fine! :| %42

